icons/category/icon_category-transport_xl_black.svg

<svg width="36" height="36" viewBox="0 0 36 36" xmlns="http://www.w3.org/2000/svg"><g fill="none" fill-rule="evenodd"><path d="M0 0h36v36H0z"/><path d="M16.817 1.054L13.962 6H8.471A3.475 3.475 0 0 0 5 9.47v21.06A3.475 3.475 0 0 0 8.471 34H27.53A3.474 3.474 0 0 0 31 30.53V9.47A3.475 3.475 0 0 0 27.529 6h-7.164l2.567-4.446-.865-.5L19.212 6h-4.096l2.567-4.446-.866-.5zM27.529 7A2.473 2.473 0 0 1 30 9.47v21.06A2.473 2.473 0 0 1 27.529 33H8.471A2.473 2.473 0 0 1 6 30.53V9.47A2.473 2.473 0 0 1 8.471 7h19.058z" fill="#0B1F35" fill-rule="nonzero"/><path d="M11.625 27.667v-1.333c0-.736-.597-1.333-1.333-1.333H5.625v4h4.667a1.335 1.335 0 0 0 1.333-1.334zm12.75-1.334v1.333c0 .736.597 1.333 1.333 1.333h4.667v-4h-4.667a1.335 1.335 0 0 0-1.333 1.334zM5.5 11h25v10h-25V11z" fill="#0B1F35" fill-rule="nonzero" opacity=".3"/></g></svg>

<?xml version="1.0" encoding="UTF-8"?>
<svg width="36px" height="36px" viewBox="0 0 36 36" version="1.1" xmlns="http://www.w3.org/2000/svg" xmlns:xlink="http://www.w3.org/1999/xlink">
    <!-- Generator: Sketch 48.2 (47327) - http://www.bohemiancoding.com/sketch -->
    <title>icon_category-transport_xl_black</title>
    <desc>Created with Sketch.</desc>
    <defs></defs>
    <g id="mobile" stroke="none" stroke-width="1" fill="none" fill-rule="evenodd" transform="translate(-1539.000000, -894.000000)">
        <g id="Headings" transform="translate(64.000000, 77.000000)">
            <g id="icon_category_transit__xl__white" transform="translate(1475.000000, 817.000000)">
                <g id="ungroup">
                    <rect id="Rectangle-path" x="0" y="0" width="36" height="36"></rect>
                    <g id="a1" opacity="0.4"></g>
                    <path d="M16.817,1.054 L13.962,6 L8.471,6 C6.557,6 5,7.557 5,9.47 L5,30.53 C5,32.443 6.557,34 8.471,34 L27.53,34 C29.443,34 31,32.443 31,30.53 L31,9.47 C31,7.557 29.443,6 27.529,6 L20.365,6 L22.932,1.554 L22.067,1.054 L19.212,6 L15.116,6 L17.683,1.554 L16.817,1.054 L16.817,1.054 Z M27.529,7 C28.892,7 30,8.108 30,9.47 L30,30.53 C30,31.892 28.892,33 27.529,33 L8.471,33 C7.108,33 6,31.892 6,30.53 L6,9.47 C6,8.108 7.108,7 8.471,7 L27.529,7 L27.529,7 Z" id="Shape" fill="#0B1F35"></path>
                    <path d="M11.625,27.667 L11.625,26.334 C11.625,25.598 11.028,25.001 10.292,25.001 L5.625,25.001 L5.625,29.001 L10.292,29.001 C11.028,29 11.625,28.403 11.625,27.667 L11.625,27.667 Z" id="Shape" fill="#0B1F35" opacity="0.3"></path>
                    <path d="M24.375,26.333 L24.375,27.666 C24.375,28.402 24.972,28.999 25.708,28.999 L30.375,28.999 L30.375,24.999 L25.708,24.999 C24.972,25 24.375,25.597 24.375,26.333 L24.375,26.333 Z" id="Shape" fill="#0B1F35" opacity="0.3"></path>
                    <rect id="Rectangle-path" fill="#0B1F35" opacity="0.3" x="5.5" y="11" width="25" height="10"></rect>
                </g>
            </g>
        </g>
    </g>
</svg>
